X:1
T:035 - Incomparável
T:Letra: J. E. Hall
T:Trad.: Henry Maxwell Wright (1849-1931)
T:Música: J. E. Hall
M:4/4
L:1/4
Q:1/4=100
K:G
V:1
D | "G"G3/A/ B/D/ "C"E3//c// | "G"B3 B | d3/e/ d/G/ "A7"B/A/ | "D"A3D | "G"G3/A/ B/D/ G3//A// | (Bcd) "C"e | "G/D"d3/c/ "D7"BA | "G"G2z G || "G"B3/c/ B/A/ G3//F// | "C"E3E | "G"G3/A/ B/c/ d3//B// | "D"A3"D7"D| "G"G3/A/ B/D/ G3//A// | (Bcd) "C"e | "G"d3/c/ "D7"BA | "G"G2z |]
w: 1.~O gran-dea-mor do meu Je-sus, Por mim mor-ren-do so-brea cruz, Da per-di-ção pra me sal-var,__ Quem po-de-rá con-tar? Quem po-deo seu a-mor con-tar?    Quem po-deo seu a-mor con-tar?    O gran-dea-mor do Sal-va-dor__     Quem po-de-rá con-tar? 
w: 2.~O cá-lix que Je-sus be-beu, A mal-di-ção que pa-de-ceu Na cruz por mim, pra me sal-var,__ Quem po-de-rá con-tar?  
w: 3.~A zom-ba-ri-a tão cru-el, A cruz san-gren-ta,oa-mar-go fel Quea-li so-freu pra me sal-var,__ Quem po-de-rá con-tar?  
w: 4.~In-com-pa-rá-vel Sal-va-dor, Quão i-ne-fá-vel teu a-mor! Quão im-pos-sí-vel de son-dar!__ I-men-si-dão sem par! 
W: 
W: 
W: 1. O grande amor do meu Jesus,
W: Por mim morrendo sobre a cruz,
W: Da perdição pra me salvar,
W: Quem poderá contar?
W: 
W:    (Estribilho)
W:    Quem pode o seu amor contar?
W:    Quem pode o seu amor contar?
W:    O grande amor do Salvador 
W:    Quem poderá contar?
W:         
W: 2. O cálix que Jesus bebeu,
W: A maldição que padeceu
W: Na cruz por mim, pra me salvar,
W: Quem poderá contar?
W: 
W: 
W: 
W: 3. A zombaria tão cruel,
W: A cruz sangrenta, o amargo fel
W: Que ali sofreu pra me salvar,
W: Quem poderá contar?
W: 
W: 4. Incomparável Salvador,
W: Quão inefável teu amor!
W: Quão impossível de sondar!
W: Imensidão sem par!
W: 
W: 				         
W:           





